icons/columns-16.svg

<svg xmlns="http://www.w3.org/2000/svg" width="16" height="16" viewBox="0 0 16 16">
  <defs/>
  <path d="M2.75,0 L5.25,0 C6.216,0 7,0.784 7,1.75 L7,14.25 C7,15.216 6.216,16 5.25,16 L2.75,16 C1.784,16 1,15.216 1,14.25 L1,1.75 C1,0.784 1.784,0 2.75,0 Z M10.75,0 L13.25,0 C14.216,0 15,0.784 15,1.75 L15,14.25 C15,15.216 14.216,16 13.25,16 L10.75,16 C9.784,16 9,15.216 9,14.25 L9,1.75 C9,0.784 9.784,0 10.75,0 Z M2.5,1.75 L2.5,14.25 C2.5,14.388 2.612,14.5 2.75,14.5 L5.25,14.5 C5.388,14.5 5.5,14.388 5.5,14.25 L5.5,1.75 C5.5,1.612 5.388,1.5 5.25,1.5 L2.75,1.5 C2.612,1.5 2.5,1.612 2.5,1.75 Z M10.5,1.75 L10.5,14.25 C10.5,14.388 10.612,14.5 10.75,14.5 L13.25,14.5 C13.388,14.5 13.5,14.388 13.5,14.25 L13.5,1.75 C13.5,1.612 13.388,1.5 13.25,1.5 L10.75,1.5 C10.612,1.5 10.5,1.612 10.5,1.75 Z"/>
</svg>

<svg xmlns="http://www.w3.org/2000/svg" width="16" height="16" viewBox="0 0 16 16"><path d="M2.75 0h2.5C6.216 0 7 .784 7 1.75v12.5A1.75 1.75 0 015.25 16h-2.5A1.75 1.75 0 011 14.25V1.75C1 .784 1.784 0 2.75 0zm8 0h2.5C14.216 0 15 .784 15 1.75v12.5A1.75 1.75 0 0113.25 16h-2.5A1.75 1.75 0 019 14.25V1.75C9 .784 9.784 0 10.75 0zM2.5 1.75v12.5c0 .138.112.25.25.25h2.5a.25.25 0 00.25-.25V1.75a.25.25 0 00-.25-.25h-2.5a.25.25 0 00-.25.25zm8 0v12.5c0 .138.112.25.25.25h2.5a.25.25 0 00.25-.25V1.75a.25.25 0 00-.25-.25h-2.5a.25.25 0 00-.25.25z"/></svg>
